pizzahut.svg

<?xml version="1.0" encoding="UTF-8"?>
<svg viewBox="0 0 24 24" version="1.1" xmlns="http://www.w3.org/2000/svg" xmlns:xlink="http://www.w3.org/1999/xlink">
    <title>Pizza Hut</title>
    <path d="M11.9893368,0.051282944 C12.6814896,-0.0377398724 14.8178984,-0.00435631628 15.3956008,0.101358278 C18.1587621,0.629931251 19.9845197,1.63143794 21.4178755,3.39520249 C22.49698,4.72498081 23.3744336,6.59445995 23.7395851,8.34709665 L23.7958331,8.613938 C23.8419121,8.8347918 23.8836214,9.03861317 23.9030858,9.12604629 C23.9303359,9.24845267 23.968486,9.84935668 23.9902861,10.4613885 C24.0447864,12.3475595 23.8703856,13.9388423 23.4561839,15.3743352 C23.1291826,16.4871204 22.6931808,17.3272733 21.8920275,18.3899831 C21.4941759,18.9129922 20.1502734,20.2369537 19.8537191,20.4931472 C19.4813436,20.814843 19.4789129,20.8373916 18.8727151,21.2887886 C17.9674135,21.9629094 17.2159083,22.3737542 16.665456,22.4349573 C16.4365551,22.462777 16.3711548,22.4516491 16.3439047,22.3793181 C16.2948545,22.2402199 16.4093049,22.0899939 16.7145062,21.8896926 C19.0743659,20.3874326 20.4205214,18.9964511 21.3306752,17.1325358 C21.8157272,16.1365931 22.017378,15.5023055 22.3225793,14.0223012 C22.4642799,13.3212465 22.5296801,11.1401875 22.4315797,10.1553726 C22.2353789,8.16348709 21.5050759,6.11596231 20.551322,4.90859037 C19.9082193,4.09069324 18.850915,3.25610434 17.4938594,2.49384647 C16.2567043,1.79279179 15.2975004,1.48121193 14.0984954,1.38106126 C13.6243435,1.34211378 13.4553928,1.50346764 13.7115438,1.74828038 C13.8259943,1.85399498 13.9513448,1.88181461 15.0086492,2.03204061 C16.2185542,2.20452232 18.1424121,3.32287145 19.3686671,4.5747548 C19.9245694,5.14227526 20.0008697,5.24242593 20.3932713,5.88784135 C20.9764237,6.85596447 21.1944246,7.46243241 21.4396756,8.79221073 C21.6685766,10.0663498 21.761227,12.4477101 21.6140764,13.438089 C21.3524753,15.2185453 20.6167223,16.8543395 19.2487666,18.6848712 C18.8890651,19.1633688 17.8208608,20.2316426 17.4448092,20.4931472 C17.3085586,20.5877339 17.1341579,20.7101403 17.0469576,20.7713435 C16.5019553,21.1441265 16.3657048,21.2331493 16.0223534,21.411195 C14.4472969,22.2402199 12.9158406,22.7131537 11.1718334,22.9245828 C8.98092439,23.1805234 6.75731524,22.7799208 4.95880784,21.8006698 C4.0977043,21.3333 2.86054921,20.203823 2.25559672,19.3358506 C1.57979394,18.3621635 1.28004271,17.3662207 1.58524397,17.1102801 C1.74329462,16.971182 1.91769533,17.1325358 2.59894814,18.0450197 C3.5636021,19.3414145 4.74625697,20.3985604 5.83081143,20.9438252 C6.81181547,21.4334507 7.70016912,21.7283387 8.9100741,21.9564597 C9.3242758,22.0343547 9.81477782,22.0176629 9.89107813,21.9230762 C9.98372851,21.8117976 9.87472807,21.6726995 9.70032735,21.6726995 C9.52047661,21.6726995 8.57762273,21.4779621 8.06532062,21.3333 C7.36771775,21.1441265 6.51206423,20.6934485 5.61826056,20.0591609 C5.38390959,19.8922432 5.13865858,19.7141975 5.07325831,19.6696861 C4.58820632,19.3302866 3.4164515,18.1396065 3.08945015,17.6611088 C2.81149901,17.2438144 2.34279708,16.2367438 2.15749632,15.6636594 C1.94494545,15.0015522 1.8849952,14.4229039 1.84139502,12.5756804 C1.80324486,10.8286077 1.86864513,9.91612379 2.09209605,9.12048237 C2.56079798,7.44017671 3.28020094,6.21611298 4.5337061,4.96422963 C5.43295979,4.06287361 5.96706199,3.72347412 7.72741923,2.94452448 C8.36507186,2.66632818 8.77927356,2.44933506 8.7901736,2.3936958 C8.81197369,2.29354513 8.61577289,2.28241728 8.31057163,2.36587617 C7.34591766,2.62181677 7.09521663,2.71640351 6.25046316,3.15595367 C4.21215477,4.22422746 2.64254832,6.0269395 1.85774509,8.2079985 C1.43264334,9.38755082 1.17104226,10.8675551 1.17104226,12.080491 C1.17104226,12.7314704 0.920341232,12.8983881 0.593339887,12.4644019 C0.408039124,12.2140252 0.3535389,11.7967308 0.3535389,10.656126 C0.348088878,9.53777682 0.402589102,9.09822666 0.642390088,8.23581813 C1.16014222,6.38303076 2.22834661,4.72498081 3.78705302,3.36181893 C4.13040444,3.06136692 4.25030493,2.97234411 5.06780829,2.41595151 C5.57466038,2.07655202 6.86086567,1.41444482 7.27506737,1.2809106 C7.35136769,1.25865489 7.55846854,1.175196 7.73831928,1.10286496 C8.157971,0.92481933 9.20982533,0.596547695 9.70032735,0.496397026 C10.4360804,0.340607097 10.8993323,0.240456429 11.1718334,0.184817169 C11.324434,0.151433612 11.6895855,0.0902304262 11.9893368,0.051282944 Z M21.0482505,20.4610452 L21.1742029,21.1690942 C21.1858182,21.2350338 21.1942873,21.2843742 21.1996113,21.3171166 C21.205661,21.2807366 21.215098,21.2273034 21.2279238,21.1568162 L21.3553283,20.4610452 L21.4500652,20.4610452 L21.4500652,21.4610452 L21.3821887,21.4610452 L21.3821887,20.6240733 L21.2275606,21.4610452 L21.1640397,21.4610452 L21.0101379,20.609749 L21.0101379,21.4610452 L20.9422614,21.4610452 L20.9422614,20.4610452 L21.0482505,20.4610452 Z M20.8718439,20.4610452 L20.8718439,20.579053 L20.6958004,20.579053 L20.6958004,21.4610452 L20.6253829,21.4610452 L20.6253829,20.579053 L20.4500652,20.579053 L20.4500652,20.4610452 L20.8718439,20.4610452 Z M11.2917339,14.1391436 C11.2372337,14.0056094 11.068283,14.033429 10.8993323,14.2003468 C10.7358316,14.3672646 10.4251803,14.9792965 10.2235295,15.5301251 C10.098179,15.8750886 10.098179,15.8750886 9.79297773,15.9585475 C9.33517585,16.0865178 9.07357477,16.1254652 9.07357477,16.069826 C9.07357477,16.0420063 9.13352502,15.8583968 9.21527535,15.6580954 C9.39512609,15.1851617 9.58042685,14.4062121 9.53682668,14.2671139 C9.46052636,14.033429 9.22072538,14.1725272 8.9100741,14.6343331 C8.70297325,14.940349 8.17432107,15.9752392 8.13072089,16.1644127 C8.10347078,16.2868191 8.04897056,16.3202026 7.75466934,16.3814058 C7.35136769,16.4648647 7.13336679,16.5705793 7.05706648,16.7208053 C6.96986612,16.8877231 7.18786701,17.1102801 7.48216822,17.1492276 C7.74921932,17.1881751 7.77101941,17.2660701 7.62386881,17.7056202 C7.49306827,18.100659 7.49306827,18.7349465 7.62386881,18.8851725 C7.75466934,19.0353985 7.92907006,19.0353985 8.11437082,18.8851725 C8.32147168,18.7182548 8.41412206,18.5068256 8.60487284,17.7278759 L8.77382354,17.0323852 L9.31337576,16.8487756 C9.60767697,16.743061 9.858378,16.67073 9.86382802,16.6762939 C9.87472807,16.6874218 9.858378,16.8042642 9.83657791,16.9433624 C9.71122739,17.5832139 9.82022784,17.944869 10.1308791,17.944869 C10.34343,17.944869 10.5723309,17.7167481 10.6322812,17.4552436 C10.6486312,17.3717847 10.6976815,17.1659194 10.7358316,16.9990016 C10.7739818,16.8320838 10.823032,16.5705793 10.8448321,16.4259172 C10.8829822,16.1532849 10.9211324,16.0976456 11.2535837,15.8695246 C11.4879347,15.7137347 11.553335,15.463358 11.3516841,15.5078694 C11.2862839,15.5245612 11.1827334,15.5579448 11.1336832,15.5802005 C10.9974327,15.6358397 11.0028827,15.5301251 11.1772834,14.8235065 C11.2590338,14.4952349 11.308084,14.189219 11.2917339,14.1391436 Z M16.0550535,13.2155319 C15.9024529,13.137637 15.6790019,13.3435022 15.3629006,13.8609473 L15.1067496,14.2726779 L14.708898,14.2726779 C14.3164963,14.2726779 14.2510961,14.3004975 14.1802458,14.5119267 C14.1311956,14.639897 14.3655465,14.8847097 14.5344972,14.8847097 C14.7797482,14.8847097 14.7906483,14.940349 14.6489477,15.4967416 C14.485447,16.1532849 14.4254968,16.8710313 14.5235972,17.1102801 C14.6652978,17.4552436 14.8015483,17.271634 15.0903995,16.3480223 C15.1612498,16.1087735 15.2648002,15.8138854 15.3193005,15.691479 C15.3738007,15.5690726 15.4664511,15.3075681 15.5318513,15.1128307 C15.6354018,14.790123 15.6626519,14.7511755 15.8588527,14.6732805 C17.2540584,14.1335797 17.6682601,13.9332784 17.5974098,13.8164359 C17.5483596,13.738541 17.0960078,13.7941802 16.5019553,13.9499702 C16.2512543,14.0111733 16.0278034,14.0501208 16.0114533,14.0278651 C15.9896532,14.0111733 16.0169033,13.9054588 16.0659535,13.7997442 C16.1150037,13.6884656 16.1586039,13.5271118 16.1586039,13.438089 C16.1586039,13.3323744 16.1204538,13.2544794 16.0550535,13.2155319 Z M13.9022946,14.6065134 C13.744244,14.6065134 13.6897438,14.6565888 13.5316931,14.9125294 C13.3082422,15.2741846 13.019391,15.6024562 12.6869396,15.8639607 C12.3326882,16.1477209 12.2727379,16.1644127 12.3435882,15.9641114 C12.4253386,15.7582461 12.4089885,15.3465156 12.3163381,15.16847 C12.2291378,14.9904243 12.054737,14.9236572 11.804036,14.9737325 C11.5478849,15.0293718 11.4879347,15.1406503 11.6405353,15.2686206 L11.7658858,15.3687713 L11.6350853,15.7248626 C11.558785,15.9362917 11.5042848,16.2089241 11.5042848,16.3925337 C11.4988347,16.6651661 11.5206348,16.7263692 11.6350853,16.8265199 C11.9239365,17.0713327 12.4471386,16.893287 12.9103906,16.3869698 C13.0520911,16.2311798 13.1828917,16.1087735 13.1937917,16.1254652 C13.2046918,16.1365931 13.270092,16.2534355 13.3409423,16.3925337 C13.4771929,16.6540382 13.744244,16.8543395 13.8859446,16.7987003 C13.9567949,16.7708807 13.9676949,16.7041135 13.9458948,16.4259172 C13.9295447,16.2367438 13.9513448,15.8083215 13.994945,15.4744859 C14.0330952,15.1406503 14.0603453,14.8068148 14.0439952,14.7344837 C14.0276451,14.6454609 13.984045,14.6065134 13.9022946,14.6065134 Z M0.200938273,13.8164359 C0.342638855,13.660646 0.380789012,13.6495182 0.604239932,13.6773378 C1.00754159,13.7218492 1.18739233,13.9666619 1.24734258,14.5508742 C1.26369264,14.7177919 1.30729282,15.1128307 1.33999296,15.4299745 C1.39449318,15.9529835 1.39449318,16.0141867 1.30729282,16.1087735 C1.17649229,16.2534355 0.974841456,16.2478716 0.680540245,16.0920817 C0.299038676,15.8973443 0.130087981,15.5690726 0.0265375552,14.8235065 C-0.0388627138,14.3450089 0.0156375103,14.0167373 0.200938273,13.8164359 Z M7.88546988,10.3278543 C7.32411757,10.0997333 6.40851381,10.2499594 6.02701224,10.6227424 C5.81991139,10.8230437 5.77631121,10.951014 5.85806154,11.106804 C5.90711174,11.2013907 5.96161197,11.2180825 6.10876257,11.2013907 C6.212313,11.1902628 6.29406334,11.1846989 6.29406334,11.1958268 C6.29406334,11.2013907 6.17416284,11.4183838 6.02701224,11.6687605 C5.45475988,12.6647032 4.8988576,14.2782418 4.83890735,15.1072668 C4.81165724,15.4800498 4.82255728,15.5356891 4.92065769,15.6247119 C5.19315881,15.8750886 5.4111597,15.4911777 6.19596293,13.438089 C6.2613632,13.2711712 6.31586343,13.1265091 6.32676347,13.1153813 C6.33221349,13.1042534 6.40306378,13.137637 6.4793641,13.1877123 C6.65376482,13.3045547 6.86631569,13.2711712 7.44401807,13.0374863 C8.20702121,12.7314704 8.6920732,12.1250024 8.6920732,11.479587 C8.6920732,11.3015414 8.65937307,11.0734204 8.61577289,10.9732697 C8.50677244,10.7173291 8.21792125,10.4613885 7.88546988,10.3278543 Z M9.89107813,11.2459021 C9.84202793,11.10124 9.74937755,11.0678565 9.64582712,11.1457514 C9.54772672,11.2125186 8.99727446,12.0415435 8.76837351,12.4644019 C8.57762273,12.8149292 8.55582264,12.8928242 8.55582264,13.2544794 C8.55582264,13.5994428 8.57217271,13.6717739 8.68662318,13.7941802 C8.88827401,14.0167373 9.18257522,13.961098 9.18257522,13.7051574 C9.18257522,13.6495182 9.31882578,13.3156826 9.48777647,12.9540274 C9.9074282,12.0526714 10.0164286,11.5797377 9.89107813,11.2459021 Z M12.5125389,10.9955254 C12.3926384,10.8731191 12.3108881,10.8675551 11.9075864,10.9343223 C11.7713359,10.956578 11.3843843,10.9955254 11.0464829,11.0177811 C10.34888,11.0678565 10.1744793,11.1457514 10.2344295,11.3905642 C10.2562296,11.4628952 10.3325299,11.557482 10.4088303,11.5908655 C10.577781,11.6687605 11.1009831,11.6798883 11.3462341,11.6075573 C11.6023852,11.5296623 11.5478849,11.6019934 10.7848818,12.3253038 C9.95102838,13.1209452 9.72757746,13.3991415 9.72757746,13.6328264 C9.72757746,13.9722259 9.88017809,14.0000455 10.6813314,13.8053081 C10.9320324,13.7441049 11.4170844,13.7051574 12.0983372,13.6829017 C13.259192,13.6550821 13.6679437,13.5938789 14.0439952,13.3991415 C14.5235972,13.1598927 14.5290472,12.8594407 14.0494452,12.9985388 C13.8641445,13.0541781 13.5807433,13.0708698 13.0793412,13.0541781 C12.6923897,13.0430502 12.0983372,13.0263584 11.7604358,13.0263584 L11.1500333,13.0207945 L11.5424349,12.609064 C12.1146873,12.00816 12.1909876,11.9191372 12.3817384,11.6520687 C12.6215394,11.3126692 12.6542395,11.1401875 12.5125389,10.9955254 Z M6.92081591,11.0901122 C6.96441609,11.0511647 7.38951784,11.1290597 7.56391856,11.2125186 C7.65111892,11.25703 7.76556939,11.3794363 7.82006961,11.4962788 C7.90726997,11.6631966 7.91271999,11.7355276 7.86911982,11.9080093 C7.78736948,12.1973335 7.37316778,12.5923722 6.942616,12.7926735 C6.75186522,12.8816964 6.55021439,12.9707192 6.50116419,12.9985388 C6.36491363,13.0708698 6.37036365,13.0263584 6.64831479,12.1917695 C6.78456535,11.780039 6.8935658,11.3738724 6.8935658,11.2848496 C6.8935658,11.1958268 6.90446585,11.106804 6.92081591,11.0901122 Z M17.6083099,10.1665005 C17.5756097,10.1720644 17.3630589,10.1887562 17.1396079,10.2110119 C16.916157,10.2277036 16.5946057,10.3000347 16.431105,10.3668018 C16.0441534,10.5225917 15.5427514,10.9343223 15.3029504,11.2959774 C15.1394497,11.5352263 15.1176496,11.6075573 15.1285497,11.8746258 L15.1448997,12.1806417 L14.954149,12.2251531 C14.7742982,12.2641006 13.9458948,12.2251531 13.8532444,12.1750778 C13.8259943,12.158386 14.1039455,11.8412422 14.4636469,11.4628952 C15.0467993,10.8564273 15.1230997,10.7562766 15.1230997,10.5837949 C15.1230997,10.3055986 14.9922991,10.2110119 14.5998975,10.2110119 C14.4254968,10.2110119 14.1039455,10.2499594 13.8968446,10.2944708 C13.6842937,10.3389822 13.3627424,10.3779296 13.1774417,10.3779296 C12.8177402,10.3779296 12.6705896,10.4613885 12.6705896,10.6616899 C12.6705896,10.8119159 12.8504403,10.9788337 13.0629912,11.0177811 C13.1665416,11.0400368 13.4172426,11.028909 13.6243435,11.0010894 C13.8368944,10.9732697 14.0167451,10.956578 14.0330952,10.9732697 C14.0494452,10.9899615 14.000395,11.0456008 13.9240947,11.106804 C13.4117926,11.5129706 12.7141897,12.1695138 12.5942893,12.3586873 C12.3381382,12.7704178 12.4362386,12.9484635 12.8776904,12.8761324 C13.019391,12.8538767 13.3790925,12.831621 13.6842937,12.831621 C14.5072471,12.8260571 14.9868491,12.7036507 15.3302005,12.4198905 C15.3738007,12.3865069 15.5209513,12.3642512 15.6572019,12.3698152 C15.9188029,12.3865069 16.4093049,12.1917695 16.7635564,11.930265 C16.916157,11.8189865 16.9379571,11.8189865 17.1069078,11.9024454 C17.2104582,11.9525207 17.384859,11.9914682 17.5047595,11.9914682 C17.7282104,11.9914682 18.131512,11.8245504 18.2023623,11.707708 C18.2568625,11.6186852 18.0388616,11.4350756 17.875361,11.4350756 C17.8099607,11.4350756 17.7118603,11.3905642 17.6628101,11.329361 C17.5756097,11.2292103 17.5756097,11.2069546 17.6846102,10.9009387 C17.8099607,10.5337196 17.8208608,10.3167265 17.7282104,10.2221397 C17.6900602,10.1831922 17.63556,10.1609365 17.6083099,10.1665005 Z M16.6218558,10.9287583 C16.8834569,10.806352 17.0142574,10.7896602 16.9379571,10.8898108 C16.905257,10.9287583 16.8671068,11.0344729 16.8453067,11.1179318 C16.8180566,11.2403382 16.7363063,11.3071053 16.4638052,11.4350756 C16.0932036,11.6131212 15.9951032,11.6353769 15.9951032,11.5463541 C15.9951032,11.4350756 16.4093049,11.0233451 16.6218558,10.9287583 Z M10.9156823,9.39311474 C10.8884322,9.24288874 10.7630817,9.24845267 10.4088303,9.43762615 C9.88562811,9.7046946 9.50957656,10.1553726 9.50957656,10.5058999 C9.50957656,10.6672538 9.66762721,10.8230437 9.82567786,10.8230437 C9.96192842,10.8230437 10.2834797,10.5114639 10.5123807,10.1553726 C10.599581,10.0162745 10.7303816,9.81040919 10.8066819,9.69913067 C10.8775322,9.58785215 10.9265824,9.448754 10.9156823,9.39311474 Z M14.5017971,4.58031873 C14.3927967,4.50242377 14.0930454,4.54137125 13.1338415,4.75836436 C12.7468899,4.84738718 12.3544883,4.93084607 12.2618379,4.94753785 C12.1746375,4.96422963 11.6568854,5.06438029 11.1173332,5.17565881 L10.9715543,5.20580267 C10.4911661,5.30537646 10.0758834,5.39366355 10.0164286,5.40377978 C9.94012833,5.42047156 9.73302748,5.68197608 9.37877603,6.22724083 C9.09537486,6.66679099 8.82832376,7.05070189 8.7901736,7.07852152 C8.75202345,7.11190507 8.43592215,7.25100322 8.09257073,7.40122923 C6.70826504,7.99100538 4.74080695,9.13161022 4.63725652,9.40980652 C4.59365634,9.53221289 4.58820632,9.53221289 4.73535692,9.62679964 C4.85525742,9.71025853 4.91520766,9.71025853 5.37845957,9.63236356 C5.65641071,9.58228823 6.07061242,9.52108504 6.29406334,9.48770148 C6.51751426,9.45988185 7.05706648,9.38198689 7.49306827,9.3207837 C8.61888719,9.158635 9.25220204,9.07006638 9.82545541,8.99551302 L10.109079,8.95912851 C10.4524304,8.9146171 10.9102323,8.85341392 11.1173332,8.82003036 C12.0111369,8.68649614 14.3164963,8.54183406 16.3003045,8.49175873 C17.0549723,8.4701576 17.7457485,8.45787461 18.1555895,8.45641709 L18.3499733,8.45670475 C18.4592488,8.45762433 18.5261578,8.46001162 18.5402637,8.4639391 C18.7201145,8.51401443 18.9762655,8.34709665 19.0198657,8.14679531 C19.0743659,7.90754649 18.9272153,7.76288442 18.3168128,7.46243241 C17.4775093,7.04513796 17.3140087,6.97837085 16.1368038,6.57220425 L14.9977491,6.1771655 L14.9050988,5.8989692 C14.8560486,5.74317927 14.7797482,5.44829119 14.7470481,5.236862 C14.6816478,4.84182325 14.6107975,4.65264977 14.5017971,4.58031873 Z" fill="#EE3A43" fill-rule="nonzero"></path>
</svg>

<svg viewBox="0 0 24 24" xmlns="http://www.w3.org/2000/svg"><path d="M11.99.051c.691-.089 2.828-.055 3.406.05 2.763.529 4.589 1.53 6.022 3.294 1.079 1.33 1.956 3.2 2.322 4.952l.056.267.107.512c.027.122.065.723.087 1.335.055 1.887-.12 3.478-.534 4.913-.327 1.113-.763 1.953-1.564 3.016-.398.523-1.742 1.847-2.038 2.103-.373.322-.375.344-.981.796-.906.674-1.657 1.085-2.208 1.146-.228.028-.294.017-.321-.056-.05-.139.065-.289.37-.49 2.36-1.502 3.707-2.893 4.617-4.756.485-.996.686-1.63.992-3.11.141-.702.207-2.883.109-3.868-.197-1.992-.927-4.039-1.88-5.246-.644-.818-1.701-1.653-3.058-2.415-1.237-.701-2.196-1.013-3.396-1.113-.474-.039-.643.122-.386.367.114.106.24.134 1.297.284 1.21.173 3.133 1.29 4.36 2.543.556.567.632.667 1.024 1.313.583.968.801 1.574 1.047 2.904.229 1.274.321 3.656.174 4.646-.262 1.78-.997 3.416-2.365 5.247-.36.478-1.428 1.547-1.804 1.808l-.398.278c-.545.373-.681.462-1.025.64a13.569 13.569 0 0 1-4.85 1.514c-2.191.256-4.415-.145-6.213-1.124-.861-.468-2.098-1.597-2.703-2.465-.676-.974-.976-1.97-.67-2.226.157-.139.332.023 1.013.935.965 1.296 2.147 2.354 3.232 2.899.98.49 1.87.784 3.08 1.012.413.078.904.062.98-.033.093-.111-.016-.25-.19-.25-.18 0-1.123-.195-1.636-.34-.697-.189-1.553-.64-2.447-1.274-.234-.167-.48-.345-.545-.39-.485-.339-1.657-1.53-1.984-2.008-.278-.417-.746-1.424-.932-1.997-.212-.662-.272-1.241-.316-3.088-.038-1.747.028-2.66.251-3.456.469-1.68 1.188-2.904 2.442-4.156.899-.901 1.433-1.24 3.193-2.02.638-.278 1.052-.495 1.063-.55.022-.1-.174-.112-.48-.028-.964.256-1.215.35-2.06.79a9.228 9.228 0 0 0-4.392 5.052c-.425 1.18-.687 2.66-.687 3.872 0 .651-.25.818-.578.384-.185-.25-.24-.667-.24-1.808-.005-1.118.05-1.558.29-2.42.517-1.853 1.585-3.511 3.144-4.874.343-.3.463-.39 1.28-.946.508-.34 1.794-1.002 2.208-1.135.076-.022.283-.106.463-.178C8.158.925 9.21.597 9.7.496c.736-.155 1.2-.256 1.472-.311.152-.034.518-.095.817-.134Zm9.058 20.41.126.708.026.148.028-.16.127-.696h.095v1h-.068v-.837l-.154.837h-.064l-.154-.851v.851h-.068v-1h.106Zm-.176 0v.118h-.176v.882h-.07v-.882h-.176v-.118h.422Zm-9.58-6.322c-.055-.133-.224-.106-.393.061-.163.167-.474.78-.675 1.33-.126.345-.126.345-.431.429-.458.128-.72.166-.72.11 0-.027.06-.21.142-.41.18-.474.365-1.253.322-1.392-.076-.234-.316-.094-.627.367-.207.306-.736 1.341-.78 1.53-.027.123-.081.156-.375.217-.404.084-.622.19-.698.34-.087.167.13.39.425.428.267.04.289.117.142.557-.13.395-.13 1.029 0 1.18.13.15.305.15.49 0 .207-.168.3-.38.49-1.158l.17-.696.54-.183c.294-.106.544-.178.55-.173.01.011-.006.128-.027.267-.126.64-.017 1.002.294 1.002.212 0 .441-.228.501-.49.017-.083.066-.29.104-.456.038-.167.087-.428.109-.573.038-.273.076-.328.409-.556.234-.156.3-.407.098-.362-.066.017-.17.05-.218.072-.137.056-.131-.05.043-.756.082-.329.131-.635.115-.685Zm4.763-.923c-.153-.078-.376.128-.692.645l-.256.412h-.398c-.393 0-.458.027-.529.239-.049.128.186.373.354.373.246 0 .257.055.115.612-.164.656-.224 1.374-.125 1.613.141.345.278.162.566-.762.071-.24.175-.534.23-.657a8.55 8.55 0 0 0 .212-.578c.103-.323.13-.362.327-.44 1.395-.54 1.81-.74 1.738-.857-.049-.077-.501-.022-1.095.134-.25.061-.474.1-.49.078-.022-.017.005-.123.054-.228a1.11 1.11 0 0 0 .093-.362c0-.106-.039-.184-.104-.222Zm-2.153 1.39c-.158 0-.212.05-.37.307-.224.361-.513.69-.845.951-.354.284-.414.3-.343.1.081-.206.065-.617-.028-.796-.087-.178-.261-.244-.512-.194-.256.055-.316.167-.163.295l.125.1-.13.356c-.077.211-.132.484-.132.668-.005.272.017.333.131.434.289.244.812.066 1.275-.44.142-.156.273-.278.284-.262.01.012.076.128.147.268.136.261.403.461.545.406.07-.028.082-.095.06-.373-.016-.19.005-.618.049-.952.038-.333.065-.667.049-.74-.016-.089-.06-.127-.142-.127Zm-13.701-.79c.142-.155.18-.166.403-.139.404.045.583.29.643.874l.093.879c.054.523.054.584-.033.679-.13.144-.332.139-.626-.017-.382-.195-.55-.523-.654-1.268-.066-.479-.011-.807.174-1.008Zm7.684-3.488c-.56-.228-1.476-.078-1.858.295-.207.2-.25.328-.169.484.05.094.104.111.25.094.104-.01.186-.016.186-.005 0 .005-.12.222-.267.473-.572.996-1.128 2.61-1.188 3.438-.027.373-.016.429.082.518.272.25.49-.134 1.275-2.187.065-.167.12-.311.13-.323.006-.01.077.023.153.073.175.117.387.083.965-.15.763-.307 1.248-.913 1.248-1.558 0-.178-.033-.407-.076-.507-.11-.256-.398-.512-.73-.645Zm2.006.918c-.049-.145-.142-.178-.245-.1-.098.067-.649.896-.878 1.318-.19.35-.212.429-.212.79 0 .345.016.418.13.54.202.223.497.167.497-.089 0-.055.136-.39.305-.751.42-.901.528-1.374.403-1.708Zm2.622-.25c-.12-.123-.202-.128-.605-.062a12.44 12.44 0 0 1-.862.084c-.697.05-.872.128-.812.373a.365.365 0 0 0 .175.2c.169.078.692.089.937.017.256-.078.202-.006-.561.717-.834.796-1.057 1.074-1.057 1.308 0 .34.152.367.953.172.251-.06.736-.1 1.417-.122 1.161-.028 1.57-.09 1.946-.284.48-.24.485-.54.005-.4-.185.055-.468.072-.97.055a57.443 57.443 0 0 0-1.319-.028l-.61-.005.392-.412c.573-.6.649-.69.84-.957.24-.34.272-.512.13-.656Zm-5.592.094c.043-.039.469.04.643.123a.68.68 0 0 1 .256.283c.087.167.093.24.05.412-.083.29-.497.684-.927.885-.191.089-.393.178-.442.206-.136.072-.13.027.147-.807.137-.412.246-.818.246-.907 0-.09.01-.178.027-.195Zm10.687-.923c-.032.005-.245.022-.468.044a2.844 2.844 0 0 0-.709.156c-.387.156-.888.567-1.128.929-.164.24-.185.312-.174.579l.016.306-.19.044c-.18.04-1.01 0-1.102-.05-.027-.017.25-.334.61-.712.584-.607.66-.707.66-.88 0-.277-.13-.372-.523-.372-.175 0-.496.039-.703.083a4.26 4.26 0 0 1-.72.084c-.36 0-.506.083-.506.284 0 .15.18.317.392.356.104.022.354.01.561-.017.213-.028.393-.044.41-.028.015.017-.034.073-.11.134-.512.406-1.21 1.063-1.33 1.252-.256.411-.158.59.284.517.141-.022.501-.044.806-.044.823-.006 1.303-.128 1.646-.412.044-.033.191-.056.327-.05.262.017.752-.178 1.107-.44.152-.111.174-.111.343-.028.103.05.278.09.398.09.223 0 .627-.167.697-.284.055-.09-.163-.273-.327-.273a.314.314 0 0 1-.212-.106c-.087-.1-.087-.122.022-.428.125-.367.136-.584.043-.679-.038-.039-.092-.061-.12-.055Zm-.986.762c.261-.123.392-.14.316-.04a.748.748 0 0 0-.093.229c-.027.122-.109.19-.381.317-.37.178-.469.2-.469.111 0-.11.414-.523.627-.617Zm-5.706-1.536c-.028-.15-.153-.145-.507.045-.523.267-.9.717-.9 1.068 0 .161.159.317.317.317.136 0 .457-.312.686-.668.088-.139.218-.345.295-.456.07-.111.12-.25.109-.306Zm3.586-4.813c-.11-.078-.409-.039-1.368.178-.387.09-.78.173-.872.19-.087.016-.605.116-1.145.228l-.145.03c-.48.1-.896.188-.956.198-.076.016-.283.278-.637.823-.284.44-.55.824-.589.852-.038.033-.354.172-.697.322-1.385.59-3.352 1.73-3.456 2.009-.043.122-.049.122.098.217.12.083.18.083.643.005.278-.05.693-.11.916-.144.224-.028.763-.106 1.2-.167 1.125-.162 1.758-.25 2.331-.325l.284-.037c.343-.044.801-.106 1.008-.139.894-.134 3.2-.278 5.183-.328a82.923 82.923 0 0 1 1.856-.036h.194c.11.002.176.004.19.008.18.05.436-.117.48-.317.054-.24-.093-.384-.703-.685-.84-.417-1.003-.484-2.18-.89l-1.14-.395-.092-.278a5.348 5.348 0 0 1-.158-.662c-.065-.395-.136-.584-.245-.657Z" fill="#EE3A43"/></svg>
